src/img/logo-instagram.svg

<svg enable-background="new 0 0 300 300" viewBox="0 0 300 300" xmlns="http://www.w3.org/2000/svg"><path d="m38.52.012h222.978c21.184 0 38.502 17.324 38.502 38.508v222.978c0 21.178-17.318 38.49-38.502 38.49h-222.978c-21.184 0-38.52-17.313-38.52-38.49v-222.978c0-21.184 17.336-38.508 38.52-38.508zm180.026 33.317c-7.438 0-13.505 6.091-13.505 13.525v32.314c0 7.437 6.067 13.514 13.505 13.514h33.903c7.426 0 13.506-6.077 13.506-13.514v-32.314c0-7.434-6.08-13.525-13.506-13.525zm47.538 93.539h-26.396c2.503 8.175 3.86 16.796 3.86 25.759 0 49.882-41.766 90.34-93.266 90.34-51.487 0-93.254-40.458-93.254-90.34 0-8.963 1.37-17.584 3.861-25.759h-27.539v126.732c0 6.563 5.359 11.902 11.916 11.902h208.907c6.563 0 11.911-5.339 11.911-11.902zm-115.801-35.89c-33.26 0-60.24 26.128-60.24 58.388 0 32.227 26.98 58.375 60.24 58.375 33.278 0 60.259-26.148 60.259-58.375 0-32.261-26.981-58.388-60.259-58.388z"/></svg>

<?xml version="1.0" encoding="iso-8859-1"?>
<!-- Generator: Adobe Illustrator 19.0.0, SVG Export Plug-In . SVG Version: 6.00 Build 0)  -->
<svg version="1.1" id="Layer_1" xmlns="http://www.w3.org/2000/svg" xmlns:xlink="http://www.w3.org/1999/xlink" x="0px" y="0px"
	 viewBox="0 0 300 300" style="enable-background:new 0 0 300 300;" xml:space="preserve">
<g id="XMLID_504_">
	<path id="XMLID_505_" d="M38.52,0.012h222.978C282.682,0.012,300,17.336,300,38.52v222.978c0,21.178-17.318,38.49-38.502,38.49
		H38.52c-21.184,0-38.52-17.313-38.52-38.49V38.52C0,17.336,17.336,0.012,38.52,0.012z M218.546,33.329
		c-7.438,0-13.505,6.091-13.505,13.525v32.314c0,7.437,6.067,13.514,13.505,13.514h33.903c7.426,0,13.506-6.077,13.506-13.514
		V46.854c0-7.434-6.08-13.525-13.506-13.525H218.546z M266.084,126.868h-26.396c2.503,8.175,3.86,16.796,3.86,25.759
		c0,49.882-41.766,90.34-93.266,90.34c-51.487,0-93.254-40.458-93.254-90.34c0-8.963,1.37-17.584,3.861-25.759H33.35v126.732
		c0,6.563,5.359,11.902,11.916,11.902h208.907c6.563,0,11.911-5.339,11.911-11.902V126.868z M150.283,90.978
		c-33.26,0-60.24,26.128-60.24,58.388c0,32.227,26.98,58.375,60.24,58.375c33.278,0,60.259-26.148,60.259-58.375
		C210.542,117.105,183.561,90.978,150.283,90.978z"/>
</g>
<g>
</g>
<g>
</g>
<g>
</g>
<g>
</g>
<g>
</g>
<g>
</g>
<g>
</g>
<g>
</g>
<g>
</g>
<g>
</g>
<g>
</g>
<g>
</g>
<g>
</g>
<g>
</g>
<g>
</g>
</svg>
